app/assets/v2/images/hackathon/onboarding_v2/icon-05-submit.svg

<svg width="68" height="68" viewBox="0 0 68 68" fill="none" xmlns="http://www.w3.org/2000/svg">
<path d="M17.6586 51C13.2174 46.7288 10.3911 40.8 10.3911 34.2338C10.3911 21.1863 20.9524 10.625 33.9999 10.625C47.0474 10.625 57.6086 21.1863 57.6086 34.2338C57.6086 40.46 55.0586 46.1125 50.9999 50.3413" stroke="#6F3FF5" stroke-width="2" stroke-miterlimit="10" stroke-linecap="round" stroke-linejoin="round"/>
<path d="M38.25 57.375V40.375H44.625L34 25.5L23.375 40.375H29.75V57.375" stroke="#6F3FF5" stroke-width="2" stroke-miterlimit="10" stroke-linecap="round" stroke-linejoin="round"/>
</svg>

<svg width="68" height="68" fill="none" xmlns="http://www.w3.org/2000/svg"><path d="M17.659 51c-4.442-4.271-7.268-10.2-7.268-16.766 0-13.048 10.561-23.609 23.609-23.609 13.047 0 23.609 10.561 23.609 23.609 0 6.226-2.55 11.878-6.61 16.107" stroke="#6F3FF5" stroke-width="2" stroke-miterlimit="10" stroke-linecap="round" stroke-linejoin="round"/><path d="M38.25 57.375v-17h6.375L34 25.5 23.375 40.375h6.375v17" stroke="#6F3FF5" stroke-width="2" stroke-miterlimit="10" stroke-linecap="round" stroke-linejoin="round"/></svg>
